X: 3251
T: Behind The Ditch In Pairc Anna
R: hornpipe
M: 4/4
K: Amixolydian
|:E>AA>B c2 d2|e>ge>d B2 d2|
[1 .e2 A2 B>AG>B|A>GE>F G>E D2:|
[2 .e2 A>c B>AG>E|A2 A>B A2- A>g||
|:e>aa>g e2 d2|e>aa>g e>g d2|
[1 .e2 A2 B>AG>B|A>GE>F G>E D2:|
[2 .e2 A>c B>AG>E|A2 A>B A4||

